static/img/kroki/77c905b82d889a81d525130838532d0a.svg

<?xml version="1.0" encoding="us-ascii" standalone="no"?><svg xmlns="http://www.w3.org/2000/svg" xmlns:xlink="http://www.w3.org/1999/xlink" contentStyleType="text/css" height="374px" preserveAspectRatio="none" style="width:406px;height:374px;" version="1.1" viewBox="0 0 406 374" width="406px" zoomAndPan="magnify"><defs/><g><!--class azure_network_virtual_network_gateway--><g id="elem_azure_network_virtual_network_gateway"><rect codeLine="23" fill="#3D176E" height="39.7891" id="azure_network_virtual_network_gateway" rx="2.5" ry="2.5" style="stroke:#000D19;stroke-width:0.5;" width="391" x="7" y="328.58"/><ellipse cx="22" cy="348.4745" fill="#ADD1B2" rx="11" ry="11" style="stroke:#181818;stroke-width:1.0;"/><path d="M24.9688,354.1152 Q24.3906,354.412 23.75,354.5527 Q23.1094,354.7089 22.4063,354.7089 Q19.9063,354.7089 18.5781,353.0683 Q17.2656,351.412 17.2656,348.287 Q17.2656,345.162 18.5781,343.5058 Q19.9063,341.8495 22.4063,341.8495 Q23.1094,341.8495 23.75,342.0058 Q24.4063,342.162 24.9688,342.4589 L24.9688,345.1777 Q24.3438,344.5995 23.75,344.3339 Q23.1563,344.0527 22.5313,344.0527 Q21.1875,344.0527 20.5,345.1308 Q19.8125,346.1933 19.8125,348.287 Q19.8125,350.3808 20.5,351.4589 Q21.1875,352.5214 22.5313,352.5214 Q23.1563,352.5214 23.75,352.2558 Q24.3438,351.9745 24.9688,351.3964 L24.9688,354.1152 Z " fill="#000000"/><text fill="#D9B8FF" font-family="Helvetica" font-size="17" lengthAdjust="spacing" textLength="349" x="41" y="354.3598">azure_network_virtual_network_gateway</text></g><!--class gateway--><g id="elem_gateway"><rect codeLine="26" fill="#3D176E" height="39.7891" id="gateway" rx="2.5" ry="2.5" style="stroke:#000D19;stroke-width:0.5;" width="114" x="50.5" y="167.79"/><ellipse cx="65.5" cy="187.6845" fill="#ADD1B2" rx="11" ry="11" style="stroke:#181818;stroke-width:1.0;"/><path d="M68.4688,193.3252 Q67.8906,193.622 67.25,193.7627 Q66.6094,193.9189 65.9063,193.9189 Q63.4063,193.9189 62.0781,192.2783 Q60.7656,190.622 60.7656,187.497 Q60.7656,184.372 62.0781,182.7158 Q63.4063,181.0595 65.9063,181.0595 Q66.6094,181.0595 67.25,181.2158 Q67.9063,181.372 68.4688,181.6689 L68.4688,184.3877 Q67.8438,183.8095 67.25,183.5439 Q66.6563,183.2627 66.0313,183.2627 Q64.6875,183.2627 64,184.3408 Q63.3125,185.4033 63.3125,187.497 Q63.3125,189.5908 64,190.6689 Q64.6875,191.7314 66.0313,191.7314 Q66.6563,191.7314 67.25,191.4658 Q67.8438,191.1845 68.4688,190.6064 L68.4688,193.3252 Z " fill="#000000"/><text fill="#D9B8FF" font-family="Helvetica" font-size="17" lengthAdjust="spacing" textLength="72" x="84.5" y="193.5698">gateway</text></g><!--class microsoft_resource--><g id="elem_microsoft_resource"><rect codeLine="29" fill="#3D176E" height="39.7891" id="microsoft_resource" rx="2.5" ry="2.5" style="stroke:#000D19;stroke-width:0.5;" width="200" x="199.5" y="167.79"/><ellipse cx="214.5" cy="187.6845" fill="#ADD1B2" rx="11" ry="11" style="stroke:#181818;stroke-width:1.0;"/><path d="M217.4688,193.3252 Q216.8906,193.622 216.25,193.7627 Q215.6094,193.9189 214.9063,193.9189 Q212.4063,193.9189 211.0781,192.2783 Q209.7656,190.622 209.7656,187.497 Q209.7656,184.372 211.0781,182.7158 Q212.4063,181.0595 214.9063,181.0595 Q215.6094,181.0595 216.25,181.2158 Q216.9063,181.372 217.4688,181.6689 L217.4688,184.3877 Q216.8438,183.8095 216.25,183.5439 Q215.6563,183.2627 215.0313,183.2627 Q213.6875,183.2627 213,184.3408 Q212.3125,185.4033 212.3125,187.497 Q212.3125,189.5908 213,190.6689 Q213.6875,191.7314 215.0313,191.7314 Q215.6563,191.7314 216.25,191.4658 Q216.8438,191.1845 217.4688,190.6064 L217.4688,193.3252 Z " fill="#000000"/><text fill="#D9B8FF" font-family="Helvetica" font-size="17" lengthAdjust="spacing" textLength="158" x="233.5" y="193.5698">microsoft_resource</text></g><!--class resource--><g id="elem_resource"><rect codeLine="32" fill="#3D176E" height="39.7891" id="resource" rx="2.5" ry="2.5" style="stroke:#000D19;stroke-width:0.5;" width="113" x="146" y="7"/><ellipse cx="161" cy="26.8945" fill="#ADD1B2" rx="11" ry="11" style="stroke:#181818;stroke-width:1.0;"/><path d="M163.9688,32.5352 Q163.3906,32.832 162.75,32.9727 Q162.1094,33.1289 161.4063,33.1289 Q158.9063,33.1289 157.5781,31.4883 Q156.2656,29.832 156.2656,26.707 Q156.2656,23.582 157.5781,21.9258 Q158.9063,20.2695 161.4063,20.2695 Q162.1094,20.2695 162.75,20.4258 Q163.4063,20.582 163.9688,20.8789 L163.9688,23.5977 Q163.3438,23.0195 162.75,22.7539 Q162.1563,22.4727 161.5313,22.4727 Q160.1875,22.4727 159.5,23.5508 Q158.8125,24.6133 158.8125,26.707 Q158.8125,28.8008 159.5,29.8789 Q160.1875,30.9414 161.5313,30.9414 Q162.1563,30.9414 162.75,30.6758 Q163.3438,30.3945 163.9688,29.8164 L163.9688,32.5352 Z " fill="#000000"/><text fill="#D9B8FF" font-family="Helvetica" font-size="17" lengthAdjust="spacing" textLength="71" x="180" y="32.7798">resource</text></g><!--reverse link gateway to azure_network_virtual_network_gateway--><g id="link_gateway_azure_network_virtual_network_gateway"><path codeLine="35" d="M128.2016,223.2865 C146.4616,253.8065 172.72,297.69 191,328.25 " fill="none" id="gateway-backto-azure_network_virtual_network_gateway" style="stroke:#FFAF37;stroke-width:2.0;"/><polygon fill="none" points="118.96,207.84,123.0527,226.367,133.3504,220.2059,118.96,207.84" style="stroke:#FFAF37;stroke-width:2.0;"/></g><!--reverse link microsoft_resource to azure_network_virtual_network_gateway--><g id="link_microsoft_resource_azure_network_virtual_network_gateway"><path codeLine="36" d="M278.418,223.2016 C259.778,253.7216 232.91,297.69 214.24,328.25 " fill="none" id="microsoft_resource-backto-azure_network_virtual_network_gateway" style="stroke:#FFAF37;stroke-width:2.0;"/><polygon fill="none" points="287.8,207.84,273.2975,220.0742,283.5385,226.3289,287.8,207.84" style="stroke:#FFAF37;stroke-width:2.0;"/></g><!--reverse link resource to gateway--><g id="link_resource_gateway"><path codeLine="37" d="M181.7984,62.4965 C163.5384,93.0165 137.28,136.9 119,167.46 " fill="none" id="resource-backto-gateway" style="stroke:#FFAF37;stroke-width:2.0;"/><polygon fill="none" points="191.04,47.05,176.6496,59.4159,186.9473,65.577,191.04,47.05" style="stroke:#FFAF37;stroke-width:2.0;"/></g><!--reverse link resource to microsoft_resource--><g id="link_resource_microsoft_resource"><path codeLine="38" d="M223.582,62.4116 C242.222,92.9316 269.09,136.9 287.76,167.46 " fill="none" id="resource-backto-microsoft_resource" style="stroke:#FFAF37;stroke-width:2.0;"/><polygon fill="none" points="214.2,47.05,218.4615,65.5389,228.7025,59.2842,214.2,47.05" style="stroke:#FFAF37;stroke-width:2.0;"/></g><!--SRC=[bP1FJy904CNl_HIRS2Of4WKIBq1Yz4ACU2T3TnOsRNV8x9G6rE-ko9yiBGKzxdk_cVTcbrQZmdmb6vLZFaVsaK-jMm53heRCL8uf8rOjOy1qUrNpYPpS12QGeth6R8rY4wWIxqkRf0wzLtU1DO8aNJ0LJk_N2uFpFnOw2QXn1juFHTZE2y6WZ1xC-yPKoUhILbTtUWzOmuWryW69urXt1bNaPjJLkq_4r6vHTS9Fcv1WhMOjufUwsd9712LhXnxznewleBLr2tKVQ6_xJkoGp_Jf4ZILEzf0viCOByX8ibdXk7OL3lhQz2x2BqrmbEo-Ji6sO9mvb98udQqjIm7PwRq0mH8swYEAlWu35wJS9aoUZCmOFHMSOEYUQyVnnyzsk_stzEZ2_l-CLuOQv7f8z0q0]--></g></svg>

<svg xmlns="http://www.w3.org/2000/svg" width="406" height="374" viewBox="0 0 406 374"><rect width="391" height="39.789" x="7" y="328.58" fill="#3D176E" rx="2.5" ry="2.5" style="stroke:#000d19;stroke-width:.5"/><circle cx="22" cy="348.474" r="11" fill="#ADD1B2" style="stroke:#181818;stroke-width:1"/><path d="M24.969 354.115q-.578.297-1.219.438-.64.156-1.344.156-2.5 0-3.828-1.64-1.312-1.657-1.312-4.782t1.312-4.781q1.328-1.656 3.828-1.656.703 0 1.344.156.656.156 1.219.453v2.719q-.625-.579-1.219-.844-.594-.281-1.219-.281-1.343 0-2.031 1.078-.687 1.062-.687 3.156t.687 3.172q.688 1.062 2.031 1.062.625 0 1.219-.265.594-.281 1.219-.86z"/><text x="41" y="354.36" fill="#D9B8FF" font-family="Helvetica" font-size="17" textLength="349">azure_network_virtual_network_gateway</text><rect width="114" height="39.789" x="50.5" y="167.79" fill="#3D176E" rx="2.5" ry="2.5" style="stroke:#000d19;stroke-width:.5"/><circle cx="65.5" cy="187.685" r="11" fill="#ADD1B2" style="stroke:#181818;stroke-width:1"/><path d="M68.469 193.325q-.578.297-1.219.438-.64.156-1.344.156-2.5 0-3.828-1.64-1.312-1.657-1.312-4.782t1.312-4.781q1.328-1.656 3.828-1.656.703 0 1.344.156.656.156 1.219.453v2.719q-.625-.578-1.219-.844-.594-.281-1.219-.281-1.344 0-2.031 1.078-.687 1.062-.687 3.156t.687 3.172q.688 1.062 2.031 1.062.625 0 1.219-.265.594-.281 1.219-.86z"/><text x="84.5" y="193.57" fill="#D9B8FF" font-family="Helvetica" font-size="17" textLength="72">gateway</text><rect width="200" height="39.789" x="199.5" y="167.79" fill="#3D176E" rx="2.5" ry="2.5" style="stroke:#000d19;stroke-width:.5"/><circle cx="214.5" cy="187.685" r="11" fill="#ADD1B2" style="stroke:#181818;stroke-width:1"/><path d="M217.469 193.325q-.578.297-1.219.438-.64.156-1.344.156-2.5 0-3.828-1.64-1.312-1.657-1.312-4.782t1.312-4.781q1.328-1.656 3.828-1.656.703 0 1.344.156.656.156 1.219.453v2.719q-.625-.578-1.219-.844-.594-.281-1.219-.281-1.344 0-2.031 1.078-.687 1.062-.687 3.156t.687 3.172q.688 1.062 2.031 1.062.625 0 1.219-.265.594-.281 1.219-.86z"/><text x="233.5" y="193.57" fill="#D9B8FF" font-family="Helvetica" font-size="17" textLength="158">microsoft_resource</text><rect width="113" height="39.789" x="146" y="7" fill="#3D176E" rx="2.5" ry="2.5" style="stroke:#000d19;stroke-width:.5"/><circle cx="161" cy="26.895" r="11" fill="#ADD1B2" style="stroke:#181818;stroke-width:1"/><path d="M163.969 32.535q-.578.297-1.219.438-.64.156-1.344.156-2.5 0-3.828-1.64-1.312-1.657-1.312-4.782t1.312-4.781q1.328-1.656 3.828-1.656.703 0 1.344.156.656.156 1.219.453v2.719q-.625-.578-1.219-.844-.594-.281-1.219-.281-1.344 0-2.031 1.078-.687 1.062-.687 3.156t.687 3.172q.688 1.062 2.031 1.062.625 0 1.219-.265.594-.281 1.219-.86z"/><text x="180" y="32.78" fill="#D9B8FF" font-family="Helvetica" font-size="17" textLength="71">resource</text><path fill="none" d="M128.202 223.287c18.26 30.52 44.518 74.403 62.798 104.963m-72.04-120.41 4.093 18.527 10.297-6.161zm159.458 15.362c-18.64 30.52-45.508 74.488-64.178 105.048m73.56-120.41-14.502 12.234 10.24 6.255zM181.798 62.497C163.538 93.017 137.28 136.9 119 167.46m72.04-120.41-14.39 12.366 10.297 6.161zm32.542 15.362c18.64 30.52 45.508 74.488 64.178 105.048M214.2 47.05l4.262 18.489 10.24-6.255z" style="stroke:#ffaf37;stroke-width:2"/></svg>
